src/deviantart/deviantart.svg

<svg xmlns="http://www.w3.org/2000/svg" width="128" height="128"><path fill="#fff" d="M100 24h-72c-2.209 0-4 1.791-4 4v71.999c0 2.209 1.791 4.001 4 4.001h72c2.209 0 4-1.792 4-4.001v-71.999c0-2.209-1.791-4-4-4zm1.424 75.553c0 1.033-.838 1.871-1.871 1.871h-71.105c-1.034 0-1.871-.838-1.871-1.871v-7.323l41.111-11.232-12.298-25.39c4.678-1.014 30.819-5.931 40.671 8.392l-16.835 4.227-5.304-11.301h-14.645l11.554 23.214 30.594-8.358v27.771zm-57.731-40.175l7.156 15.66-15.903 3.796c-3.379-8.114 1.846-15.912 8.747-19.456zm57.731-7.141c-20.764-6.816-37.994-5.823-49.351-3.475l-3.576-7.383h-13.029l4.965 10.826-.079.032c-7.477 3.059-13.778 8.324-13.778 8.324v-32.114c0-1.033.838-1.871 1.871-1.871h71.106c1.033 0 1.871.838 1.871 1.871v23.79z"/></svg>

<?xml version="1.0" encoding="UTF-8" standalone="no"?>
<!-- Created with Inkscape (http://www.inkscape.org/) -->

<svg
   xmlns:dc="http://purl.org/dc/elements/1.1/"
   xmlns:cc="http://creativecommons.org/ns#"
   xmlns:rdf="http://www.w3.org/1999/02/22-rdf-syntax-ns#"
   xmlns:svg="http://www.w3.org/2000/svg"
   xmlns="http://www.w3.org/2000/svg"
   xmlns:inkscape="http://www.inkscape.org/namespaces/inkscape"
   version="1.1"
   width="128"
   height="128"
   id="svg2">
  <metadata
     id="metadata10">
    <rdf:RDF>
      <cc:Work
         rdf:about="">
        <dc:format>image/svg+xml</dc:format>
        <dc:type
           rdf:resource="http://purl.org/dc/dcmitype/StillImage" />
      </cc:Work>
    </rdf:RDF>
  </metadata>
  <defs
     id="defs8" />
  <path
     d="M 100,24 H 28 c -2.209,0 -4,1.791 -4,4 v 71.999 c 0,2.209 1.791,4.001 4,4.001 h 72 c 2.209,0 4,-1.792 4,-4.001 V 28 c 0,-2.209 -1.791,-4 -4,-4 z m 1.424,75.553 c 0,1.033 -0.838,1.871 -1.871,1.871 H 28.448 c -1.034,0 -1.871,-0.838 -1.871,-1.871 V 92.23 L 67.688,80.998 55.39,55.608 C 60.068,54.594 86.209,49.677 96.061,64 L 79.226,68.227 73.922,56.926 H 59.277 L 70.831,80.14 101.425,71.782 V 99.553 z M 43.693,59.378 50.849,75.038 34.946,78.834 C 31.567,70.72 36.792,62.922 43.693,59.378 z m 57.731,-7.141 C 80.66,45.421 63.43,46.414 52.073,48.762 L 48.497,41.379 H 35.468 l 4.965,10.826 -0.079,0.032 c -7.477,3.059 -13.778,8.324 -13.778,8.324 V 28.447 c 0,-1.033 0.838,-1.871 1.871,-1.871 h 71.106 c 1.033,0 1.871,0.838 1.871,1.871 v 23.79 z"
     inkscape:connector-curvature="0"
     id="path4"
     style="fill:#ffffff" />
</svg>
